X: 1
T: Our Village Chanteyman
C: David A. Kaynor, May 2021
M: 4/4
L: 1/8
K: G
|: Bc |\
"G"d2gd B2AG | "D7"FEFG ABc2 |1,3 "G"d2gd B2AG | "D"FDGF G2Bc \
                            :|2,4 "G"dgdB "Am"cBAG | "D7"FDGF "G"G2 :|
|: GA |\
"G"B2AF GDB,D | "C"CEGE "D7"DFAc |1,3 "G"B2AF GDB,D | "D7"CDGF G2GA \
                                :|2,4 "G"dgdB "Am"cBAG | "D7"FDGF "G"G2 :|
